X:144
T:Marching Through Georgia
O:1865 USA Civil War
C:Henry Clay Work
N:Composed after General Sherman's march to the coast on Nov.14th 1864
M:4/4
L:1/4
K:D
|f>e de|fA AA|Bc d>e|d4|FG A>A|BA Bd|e>d ef|e4|
|dd ef|gB BB|Ad de|f3 f|e2 e>e|e2 fe|d4|d3f|
|a3 f|a3 f|d>e dB|d3 f|a3 f|a3 f|e>d ef|e4|
|dd ef|gB BB|Ad de|f3 f|e2 e>e|ee fe|d4|d3e|
